!!!!SEGMENT: pl-kk--kk-i-7--046-002_luython-carl--missa-et-in-terra.krn
!!!cenid: 16xx:849
!!!COM: Luython, Carl
!!!COM-rismID:
!!!CDT: ~1557-1620
!!!CNT:
!!!OPR: Missa
!!!OTL: Et in terra
!!!OMV: 002
!!!PDT:
!!!AGN: Sacred; Mass
!!!SMS-siglum: PL-Kk
!!!SMS-shelfmark: Kk.I.7
!!!SMS-shelfwork: 046-002 M
!!!SMS-variant:
!!!SMS-altvar:
!!!NIFC-rismSourceID: 300258123
!!!NIFC-islandoraID: pl-kk:1956
!!!URL-pdf-islandora: https://repozytorium.nifc.pl/islandora/object/pl-kk%3A1956/datastream/PDF/view
!!!URL-scan: https://polish.musicsources.pl/pl/lokalizacje/galeria/rekopisy/6140 @EN{Scan on Polish Music Herritage in Open Access Website} @PL{Skany w portalu Dziedzictwo Muzyki Polskiej w otwartym dostępie}
!!!ONB-nifc: UWAGA: C (skan 0041, s.76-77), A (0125-0126, s.70-72), T(0201-0202, s.66-68), B(0290-0291, s.67-68). Części Mszy: 1. Kyrie, 2. Et in terra, 3. Sanctus, 4. Agnus Dei
!!!AIN: 2 alto 1 bass 1 tenor
!!!key:
**kern	**text	**kern	**text	**kern	**text	**kern	**text
*part4	*part4	*part3	*part3	*part2	*part2	*part1	*part1
*staff4	*staff4	*staff3	*staff3	*staff2	*staff2	*staff1	*staff1
*Ibass	*	*Itenor	*	*Ialto	*	*Ialto	*
*I"[Bassus]	*	*I"[Tenore]	*	*I"[Altus II]	*	*I"[Altus I]	*
*I'[B]	*	*I'[T]	*	*I'[A II]	*	*I'[A I]	*
*clefF4	*	*clefC4	*	*clefC3	*	*clefC3	*
*k[b-]	*	*k[b-]	*	*k[b-]	*	*k[b-]	*
*g:	*	*g:	*	*g:	*	*g:	*
*M2/1	*	*M2/1	*	*M2/1	*	*M2/1	*
=1-	=1-	=1-	=1-	=1-	=1-	=1-	=1-
!LO:TX:t=P:problem=przy kluczu BB- B-	!	!	!	!	!	!	!
1.G\	Et	2r	.	2r	.	2re	.
.	.	1B-\	Et	1d\	Et	1g\	Et
*2\right	*	*2\right	*	*2\right	*	*2\right	*
!	!	!LO:TX:t=P:problem=kreska pseudotaktowa	!	!LO:TX:t=P:problem=kreska pseudotaktowa	!	!LO:TX:t=P:problem=kreska pseudotaktowa	!
!LO:TX:t=P:problem=2\right&colon; global	!	!LO:TX:t=P:problem=2\right&colon; global	!	!LO:TX:t=P:problem=2\right&colon; global	!	!LO:TX:t=P:problem=2\right&colon; global	!
2F\	in	2A\	in	2d\	in	2d\	in
=2-	=2-	=2-	=2-	=2-	=2-	=2-	=2-
2E-X\	ter-	2B-\	ter-	2G/	ter-	2g\	ter-
!LO:TX:t=P:problem=kreska pseudotaktowa	!	!	!	!LO:TX:t=P:problem=kreska pseudotaktowa	!	!	!
2C/	-ra	2c\	-a	2g\	-ra	2e-X\	-ra
2.G\	pax	2.B-\	pax	2.g\	pax	2.d\	pax
!	!	!LO:TX:t=P:problem=kreska pseudotaktowa	!	!LO:TX:t=P:problem=kreska pseudotaktowa	!	!LO:TX:t=P:problem=kreska pseudotaktowa	!
4G\	ho-	4B-\	ho-	4d\	ho-	4d\	ho-
=3-	=3-	=3-	=3-	=3-	=3-	=3-	=3-
2G\	-mi-	2B-\	-mi-	2d\	-mi-	2G/	-mi-
2G\	-ni-	2B-\	-ni-	2e\	-ni-	2B-/	-ni-
!LO:TX:t=P:problem=kreska pseudotaktowa	!	!	!	!	!	!	!
!LO:TX:t=P:global:problem=rozdzielacz słów / znak oddechu	!	!LO:TX:t=P:problem=kreska pseudotaktowa	!	!LO:TX:t=P:problem=kreska pseudotaktowa	!	!LO:TX:t=P:problem=kreska pseudotaktowa	!
1F\,	-b(us)	1A\	-b(us)	1f\	-b(us)	1c\	-b(us)
!	!	!	!	!LO:LB:g=original	!	!	!
=4-	=4-	=4-	=4-	=4-	=4-	=4-	=4-
2.BB-/	bo-	2F/	bo-	2.d\	bo-	2.f\	bo-
.	.	2B-\	-nae	.	.	.	.
4C/	-nae	.	.	4G/	-nae	4e-X\	-nae
2D\	vo-	2A\	Vo-	2F#X/	vo-	2d\	vo-
!	!	!	!	!	!	!LO:TX:t=P:problem=kreska pseudotaktowa	!
2E-X\	-lun-	4G/	-lun-	2G/	-lun-	2c/	-lun-
!	!	!LO:TX:t=P:problem=kreska pseudotaktowa	!	!	!	!	!
.	.	[4G/	-ta-	.	.	.	.
=5-	=5-	=5-	=5-	=5-	=5-	=5-	=5-
!	!	!	!	!LO:TX:t=P:problem=kreska pseudotaktowa	!	!	!
1D\	-ta-	4G/]	.	1A/	-ta-	1d\	-ta-
.	.	8F#X/L	.	.	.	.	.
.	.	8E/J	.	.	.	.	.
!	!	!LO:TX:t=P:problem=kreska pseudotaktowa	!	!	!	!	!
.	.	2F#/	.	.	.	.	.
!	!	!	!	!	!	!LO:TX:t=P:global:problem=oddech jako rozdzielacz słów, przeważnie na wysokości dźwięku poprzedzającego	!
!LO:TX:t=P:problem=kreska pseudotaktowa	!	!LO:TX:t=P:global:problem=rozdzielacz słów / znak oddechu	!	!LO:TX:t=P:global:problem=rozdzielacz słów / znak oddechu	!	!LO:TX:t=P:global:problem=rozdzielacz słów / znak oddechu	!
1GG/	-tis	2.G,/	-tis.	2G,/	-tis	2Bn,</	-tis.
*	*	*	*	*	*	*custos:c	*
!	!	!	!	!	!	!LO:TX:t=P:problem=kreska pseudotaktowa	!
.	.	.	.	2g\	Lau-	2d\	Lau-
.	.	4G/	Lau-	.	.	.	.
!	!	!	!	!	!	!LO:LB:g=original	!
=6-	=6-	=6-	=6-	=6-	=6-	=6-	=6-
00r	.	2A\	-da-	2f\	-da-	2c/	-da-
!	!	!LO:TX:t=P:problem=kreska pseudotaktowa	!	!LO:TX:t=P:problem=kreska pseudotaktowa	!	!	!
.	.	2B-\	-m(us)	2d\	-m(us)	2B-/	-m(us)
.	.	2F/	Te	2c\	Te	2A,/	Te
!	!	!	!	!	!	!LO:TX:t=P:problem=kreska pseudotaktowa	!
.	.	2.F/	be-	2.c\	be-	[2A/	be-
=7-	=7-	=7-	=7-	=7-	=7-	=7-	=7-
!LO:TX:t=P:problem=kreska pseudotaktowa	!	!	!	!	!	!LO:N:xstem:cue	!
.	.	.	.	.	.	4A/]	.
.	.	4F/	-ne-	4d\	-ne-	4A/	-ne-
!	!	!LO:TX:t=P:problem=kreska pseudotaktowa	!	!LO:TX:t=P:problem=kreska pseudotaktowa	!	!LO:TX:t=P:problem=kreska pseudotaktowa	!
.	.	[2G/	-di-	[<2e-X\	-di-	[2B-/	-di-
!	!	!LO:N:xstem:cue	!	!LO:N:xstem:cue	!	!LO:N:xstem:cue	!
.	.	4G/]	.	4e-\]	.	4B-/]	.
.	.	4F/	-ci-	4d\	-ci-	4A/	-ci-
!	!	!	!	!	!	!LO:TX:t=P:problem=kreska pseudotaktowa	!
.	.	2E-X/	-m(us)	2c\	-m(us)	2G/	-m(us)
=8-	=8-	=8-	=8-	=8-	=8-	=8-	=8-
!	!	!	!	!LO:TX:t=P:problem=kreska pseudotaktowa	!	!	!
4r	.	4D,/	Te	1d\	Te	4A,/	Te
2D/	a-	2F#X/	a-	.	.	2A/	a-
*	*	*custos:F#	*	*	*	*	*
!	!	!LO:TX:t=P:problem=kreska pseudotaktowa	!	!	!	!	!
!LO:TX:t=P:problem=kreska pseudotaktowa	!	!	!	!	!	!LO:TX:t=P:problem=kreska pseudotaktowa	!
4GG/	-do-	4G/	-do-	.	.	4B-/	-do-
!	!	!LO:LB:g=original	!	!	!	!	!
2D\	-ra-	2F#X/	-ra-	00r	.	2A/	-ra-
!LO:TX:a:t=P:problem=♮ above	!	!	!	!	!	!	!
2En\	-m(us)	2G/	-m(us)	.	.	2G/	-m(us)
=9-	=9-	=9-	=9-	=9-	=9-	=9-	=9-
2.F\	Te	2A,\	Te	.	.	2c,\	Te
!	!	!LO:TX:t=P:problem=kreska pseudotaktowa	!	!	!	!	!
.	.	2d\	glo-	.	.	2f\	glo-
!LO:TX:t=P:problem=kreska pseudotaktowa	!	!	!	!	!	!	!
4G\	glo-	.	.	.	.	.	.
2A\	-ri-	4c#X\	-ri-	.	.	2e\	-ri-
.	.	4A\	-fi-	.	.	.	.
!	!	!	!	!	!	!LO:TX:t=P:problem=kreska pseudotaktowa	!
2B-\	-fi-	1d\	-ca-	.	.	2d\	-fi-
=10-	=10-	=10-	=10-	=10-	=10-	=10-	=10-
!	!	!	!	!LO:TX:t=P:problem=kreska pseudotaktowa	!	!	!
2.A\	-ca-	.	.	.	.	2.e\	-ca-
!	!	!LO:TX:t=P:problem=kreska pseudotaktowa	!	!	!	!	!
.	.	2c#X\	-m(us)	.	.	.	.
!LO:TX:t=P:problem=kreska pseudotaktowa	!	!	!	!	!	!	!
4A\	-m(us)	.	.	.	.	4e\	-m(us)
2D,/	Te.	2d,\	Te.	2rA	.	2d,\	Te.
2.D/	Gra-	2.A\	Gra-	2.F#X/	Gra-	2.d\	Gra-
=11-	=11-	=11-	=11-	=11-	=11-	=11-	=11-
4D/	-ti-	4A\	-ti-	4F#X/	-ti-	4d\	-ti-
!LO:TX:t=P:problem=kreska pseudotaktowa	!	!LO:TX:t=P:problem=kreska pseudotaktowa	!	!LO:TX:t=P:problem=kreska pseudotaktowa	!	!LO:TX:t=P:problem=kreska pseudotaktowa	!
2C/	-as	2cn\	-as	2G/	-as	2e\	-as
2.BB-/	a-	2.d\	a-	2.B-/	a-	2.f\	a-
4BB-/	-gi-	4d\	-gi-	4B-/	-gi-	4f\	-gi-
=12-	=12-	=12-	=12-	=12-	=12-	=12-	=12-
2F\	-m(us)	2c,\	-m(us)	2A/	-m(us)	2f,\	-m(us)
*custos:C	*	*	*	*	*	*	*
!LO:TX:t=P:problem=kreska pseudotaktowa	!	!	!	!	!	!	!
!	!	!LO:TX:t=P:problem=kreska pseudotaktowa	!	!LO:TX:t=P:problem=kreska pseudotaktowa	!	!LO:TX:t=P:problem=kreska pseudotaktowa	!
2G\	Ti-	2B-\	Ti-	2G/	Ti-	2d\	Ti-
!LO:LB:g=original	!	!	!	!	!	!	!
2D,\	-bi	2A\	-bi	2F#X/	-bi	1d\,	-bi
2.G\	pro-	2.G/	pro-	2.B-/	pro-	.	.
=13-	=13-	=13-	=13-	=13-	=13-	=13-	=13-
.	.	.	.	.	.	2.d\	pro-
4F#X\	-pter	4A\	-pter	4A/	-pter	.	.
!LO:TX:t=P:problem=kreska pseudotaktowa	!	!LO:TX:t=P:problem=kreska pseudotaktowa	!	!LO:TX:t=P:problem=kreska pseudotaktowa	!	!	!
2G\	ma-	2B-\	ma-	2G/	ma-	.	.
!	!	!	!	!	!	!LO:TX:t=P:problem=kreska pseudotaktowa	!
.	.	.	.	.	.	4e\	-pter
2D\	-gnam	2A,\	-gnam	2d\	-gnam	2f\	ma-
2.G\	glo-	2.B-\	glo-	2.d\	glo-	2d\	-gnam
=14-	=14-	=14-	=14-	=14-	=14-	=14-	=14-
.	.	.	.	.	.	4.e-X\	glo-
4A\	-ri-	4c\	-ri-	4c\	-ri-	.	.
.	.	.	.	.	.	8e-\	-ri-
*	*	*	*	*	*	*custos:c	*
!	!	!	!	!	!	!LO:TX:t=P:problem=kreska pseudotaktowa	!
2B-\	-am	4d\	-am	2f,\	-am	2d\	-am
!	!	!LO:TX:t=P:problem=kreska pseudotaktowa	!	!	!	!	!
.	.	[<4B-\	.	.	.	.	.
*	*	*	*	*custos:d	*	*	*
!	!	!	!	!	!	!LO:LB:g=original	!
!	!	!	!	!LO:TX:t=P:problem=kreska pseudotaktowa	!	!	!
1F\	tu-	4B-\]	.	1f\	tu-	1c\	.
.	.	8A\L	.	.	.	.	.
.	.	8G\J	.	.	.	.	.
!	!	!LO:TX:t=P:problem=kreska pseudotaktowa	!	!	!	!	!
.	.	2A\	Tu-	.	.	.	.
!	!	!	!	!LO:LB:g=original	!	!	!
=15-	=15-	=15-	=15-	=15-	=15-	=15-	=15-
!LO:TX:t=P:problem=kreska pseudotaktowa	!	!	!	!	!	!LO:TX:t=P:problem=kreska pseudotaktowa	!
1BB-/	-am	2B-,\	-am.	2d,\	-am	1B-/	.
.	.	2.B-\	Do-	2.d\	Do-	.	.
0r	.	.	.	.	.	0r	.
.	.	4B-\	-mi-	4d\	-mi-	.	.
!	!	!LO:TX:t=P:problem=kreska pseudotaktowa	!	!LO:TX:t=P:problem=kreska pseudotaktowa	!	!	!
.	.	2A\	-ne	2c\	-ne	.	.
=16-	=16-	=16-	=16-	=16-	=16-	=16-	=16-
!	!	!	!	!	!	!LO:TX:t=P:problem=kreska pseudotaktowa	!
.	.	2G/	DE-	2e-X\	DE-	.	.
!	!	!LO:TX:t=P:problem=kreska pseudotaktowa	!	!LO:TX:t=P:problem=kreska pseudotaktowa	!	!	!
.	.	2B-\	-(us)	2d\	-(us)	.	.
!	!	!LO:LB:g=original	!	!	!	!	!
!LO:TX:t=P:problem=kreska pseudotaktowa	!	!	!	!	!	!	!
1r	.	4A/	Rex	4c/	Rex	2r	.
.	.	4G/	coe-	4B-/	coe-	.	.
!	!	!	!	!LO:TX:t=P:problem=kreska pseudotaktowa	!	!	!
.	.	2F#X/	-le-	2A/	-le-	1d\	DE-
=17-	=17-	=17-	=17-	=17-	=17-	=17-	=17-
!	!	!LO:TX:t=P:problem=kreska pseudotaktowa	!	!LO:TX:t=P:problem=kreska pseudotaktowa	!	!	!
2r	.	1G/	-stis	1G/	-stis	.	.
1G\	DE-	.	.	.	.	2B-/	-us
.	.	00r	.	0r	.	2e-X\	Pa-
!	!	!	!	!	!	!LO:TX:t=P:problem=kreska pseudotaktowa	!
2F,\	-(us)	.	.	.	.	[<2d\	-ter
=18-	=18-	=18-	=18-	=18-	=18-	=18-	=18-
!	!	!	!	!LO:TX:t=P:problem=kreska pseudotaktowa	!	!LO:N:xstem:cue	!
2B-\	Pa-	.	.	.	.	4d\]	.
.	.	.	.	.	.	4d\	O-
!LO:TX:t=P:problem=kreska pseudotaktowa	!	!	!	!	!	!	!
[<2A\	-ter	.	.	.	.	2.c/	.
!LO:N:xstem:cue	!	!	!	!	!	!	!
4A\]	.	.	.	1r	.	.	.
4G\	Om-	.	.	.	.	4B-/	.
1G\	-ni-	.	.	.	.	4B-/	.
.	.	.	.	.	.	8A/L	.
!	!	!	!	!	!	!LO:TX:t=P:problem=kreska pseudotaktowa	!
.	.	.	.	.	.	8G/J	.
=19-	=19-	=19-	=19-	=19-	=19-	=19-	=19-
!	!	!LO:TX:t=P:problem=kreska pseudotaktowa	!	!	!	!	!
.	.	.	.	2r	.	2.A/	-mni-
2F#X\	-po-	.	.	2.d\	Do-	.	.
.	.	.	.	.	.	4A/	-po-
!LO:TX:t=P:problem=kreska pseudotaktowa	!	!	!	!	!	!LO:TX:t=P:problem=kreska pseudotaktowa	!
1G\	-tens	2r	.	.	.	1G/	-tens
.	.	.	.	4d\	-mi-	.	.
!	!	!	!	!LO:TX:t=P:problem=kreska pseudotaktowa	!	!	!
.	.	2.d\	Do-	2g\	-ne	.	.
=20-	=20-	=20-	=20-	=20-	=20-	=20-	=20-
00r	.	.	.	2f\	Fi-	00r	.
.	.	4d\	-mi-	.	.	.	.
!	!	!LO:TX:t=P:problem=kreska pseudotaktowa	!	!	!	!	!
.	.	2c\	-ne	2e\	-li	.	.
.	.	2B-\	Fi-	2d\	u-	.	.
!	!	!LO:TX:t=P:problem=kreska pseudotaktowa	!	!LO:TX:t=P:problem=kreska pseudotaktowa	!	!	!
.	.	2A\	-li	2f\	-ni-	.	.
=21-	=21-	=21-	=21-	=21-	=21-	=21-	=21-
!LO:TX:t=P:problem=kreska pseudotaktowa	!	!	!	!	!	!LO:TX:t=P:problem=kreska pseudotaktowa	!
.	.	4G/	u-	4e\	-ge-	.	.
.	.	4F/	-ni-	4d\	.	.	.
.	.	4F/	-ge-	1d\	.	.	.
.	.	8E/L	.	.	.	.	.
!	!	!LO:TX:t=P:problem=kreska pseudotaktowa	!	!	!	!	!
.	.	8D/J	.	.	.	.	.
.	.	2.E/	.	.	.	.	.
!	!	!	!	!LO:TX:t=P:problem=kreska pseudotaktowa	!	!	!
.	.	.	.	2c#X\	ni-	.	.
.	.	4E/	-ni-	.	.	.	.
=22-	=22-	=22-	=22-	=22-	=22-	=22-	=22-
2r	.	2D,/	-te	2d,\	-te	2r	.
1D\	Je-	1A\	JE-	1d\	Je-	1f\	Je-
!	!	!LO:TX:t=P:problem=kreska pseudotaktowa	!	!LO:TX:t=P:problem=kreska pseudotaktowa	!	!	!
2C,/	-su	2A\	-su	[2A/	-su	2e\	-su
=23-	=23-	=23-	=23-	=23-	=23-	=23-	=23-
!	!	!	!	!LO:N:xstem:cue	!	!	!
1BB-/	X-	1D/	Chri-	4A/]	.	1d\	X-
.	.	.	.	8G/L	.	.	.
.	.	.	.	8F/J	.	.	.
.	.	.	.	2G/	X-	.	.
!LO:TX:t=P:problem=kreska pseudotaktowa	!	!LO:TX:t=P:problem=kreska pseudotaktowa	!	!LO:TX:t=P:problem=kreska pseudotaktowa	!	!LO:TX:t=P:problem=kreska pseudotaktowa	!
1AA/	-te	1E/	-ste	1A/	-te	1c#X\	-te
=24-	=24-	=24-	=24-	=24-	=24-	=24-	=24-
2.D\	Do-	2.F#X/	Do-	2.A/	Do-	2.d\	Do-
4D\	-mi-	4F#/	-mi-	4A/	-mi-	4d\	-mi-
!	!	!LO:TX:t=P:problem=kreska pseudotaktowa	!	!	!	!LO:TX:t=P:problem=kreska pseudotaktowa	!
2GG/	-ne	1G/	-ne	2.B-/	-ne	1d\	-ne
!LO:TX:t=P:problem=kreska pseudotaktowa	!	!	!	!	!	!	!
[<2G\	DE-	.	.	.	.	.	.
*	*	*	*	*custos:d	*	*	*
!	!	!	!	!LO:TX:t=P:problem=kreska pseudotaktowa	!	!	!
.	.	.	.	4c/	.	.	.
!	!	!	!	!LO:LB:g=original	!	!	!
=25-	=25-	=25-	=25-	=25-	=25-	=25-	=25-
!LO:N:xstem:cue	!	!	!	!	!	!	!
4G\]	.	1B-\	DE-	1d\,	.	2g\	DE-
8F\L	.	.	.	.	.	.	.
8E\J	.	.	.	.	.	.	.
4D\	.	.	.	.	.	2f\	-(us)
!LO:TX:t=P:problem=kreska pseudotaktowa	!	!	!	!	!	!	!
4E\	.	.	.	.	.	.	.
2F\	.	2A,\	-(us)	2c/	DE-	1.f\	Ag-
2BB-,/	-us	2d\	Ag-	2B-/	-us	.	.
=26-	=26-	=26-	=26-	=26-	=26-	=26-	=26-
2F\	Ag-	2c\	-nus	2A/	Ag-	.	.
!	!	!LO:TX:t=P:problem=kreska pseudotaktowa	!	!LO:TX:t=P:problem=kreska pseudotaktowa	!	!LO:TX:t=P:problem=kreska pseudotaktowa	!
2G\	-n(us)	[<2B-\	De-	2B-/	-n(us)	2e\	-n(us)
!LO:TX:t=P:problem=kreska pseudotaktowa	!	!LO:N:xstem:cue	!	!	!	!	!
1F\	De-	4B-\]	.	1c\	De-	1f\	De-
.	.	8A\L	.	.	.	.	.
.	.	8G\J	.	.	.	.	.
*	*	*custos:B-	*	*	*	*	*
!	!	!LO:TX:t=P:problem=kreska pseudotaktowa	!	!	!	!	!
.	.	2A\	.	.	.	.	.
!	!	!LO:LB:g=original	!	!	!	!	!
=27-	=27-	=27-	=27-	=27-	=27-	=27-	=27-
2BB-,/	-i	2B-,\	-i	2B-/	-i	2d\	-i
2.BB-/	Fi-	2.B-\	Fi-	2.f\	Fi-	2.d\	Fi-
4BB-/	-li-	4B-\	-li-	4f\	-li-	4d\	-li-
!	!	!LO:TX:t=P:problem=kreska pseudotaktowa	!	!LO:TX:t=P:problem=kreska pseudotaktowa	!	!LO:TX:t=P:problem=kreska pseudotaktowa	!
2F\	-(us)	2A\	-us	2f\	-(us)	2c\	-(us)
=28-	=28-	=28-	=28-	=28-	=28-	=28-	=28-
0G\	Pa-	2.G/	Pa-	0d\	Pa-	2.B-/	Pa-
*	*	*	*	*	*	*custos:G	*
!	!	!	!	!	!	!LO:TX:t=P:problem=kreska pseudotaktowa	!
.	.	4A\	.	.	.	4A/	.
!	!	!	!	!	!	!LO:LB:g=original	!
.	.	1B-\	.	.	.	1G/	.
=29-	=29-	=29-	=29-	=29-	=29-	=29-	=29-
00D\;	-tris.	00A\;	-tris.	00d\;	-tris.	00F#X/;	-tris.
!LO:LB:g=original	!	!	!	!	!	!	!
=30||-	=30||-	=30||-	=30||-	=30||-	=30||-	=30||-	=30||-
*M2/1	*	*M2/1	*	*M2/1	*	*M2/1	*
!	!	!	!	!	!	!LO:TX:t=P:problem=kreska pseudotaktowa	!
1D\	Qui	1F#X/	Qui	1A/	Qui	1d\	Qui
!	!	!LO:TX:t=P:problem=kreska pseudotaktowa	!	!LO:TX:t=P:problem=kreska pseudotaktowa	!	!	!
1GG/	tol-	1G/	tol-	1B-/	tol-	1d\	tol-
=31-	=31-	=31-	=31-	=31-	=31-	=31-	=31-
2.D,\	-lis	2.F#X/	-lis	2A/	-lis	2.d\	-lis
.	.	.	.	4A/	pec-	.	.
!LO:TX:t=P:problem=kreska pseudotaktowa	!	!	!	!LO:TX:t=P:problem=kreska pseudotaktowa	!	!LO:TX:t=P:problem=kreska pseudotaktowa	!
4E\	pec-	4G/	pec-	[4c/	-ca-	4G/	pec-
2F\	-ca-	2A/	-ca-	4c/]	.	2c/	-ca-
.	.	.	.	4A/	-ta	.	.
!LO:TX:t=P:problem=kreska pseudotaktowa	!	!	!	!	!	!	!
2G,\	-ta	2G/	-ta	1d\	mun-	2B-/	-ta
=32-	=32-	=32-	=32-	=32-	=32-	=32-	=32-
2D\	mun-	2F#X/	mun-	.	.	2A/	mun-
!LO:TX:t=P:problem=kreska pseudotaktowa	!	!LO:TX:t=P:problem=kreska pseudotaktowa	!	!LO:TX:t=P:problem=kreska pseudotaktowa	!	!LO:TX:t=P:problem=kreska pseudotaktowa	!
2D,\	-di	2F#/	-di	2d\	-di	2A/	-di
2.G\	mi-	2rF	.	2.d\	mi-	2.Bn/	mi-
!	!	!LO:TX:t=P:problem=kreska pseudotaktowa	!	!	!	!	!
.	.	2G/	mi-	.	.	.	.
4G\	-ſe-	.	.	4d\	-ſe-	4B/	-ſe-
=33-	=33-	=33-	=33-	=33-	=33-	=33-	=33-
2C/	-re-	4G/	-ſe-	2e\	-re-	2c/	-re-
.	.	2A/	-re-	.	.	.	.
!	!	!	!	!LO:TX:t=P:problem=kreska pseudotaktowa	!	!	!
2D,/	-re	.	.	2f\	-re	4A/	-re
!	!	!LO:TX:t=P:problem=kreska pseudotaktowa	!	!	!	!LO:TX:t=P:problem=kreska pseudotaktowa	!
.	.	[4F/	-re	.	.	[4A/	no-
1BB-/	no-	4F/]	.	1d\	no-	4A/]	.
.	.	4E/	.	.	.	8G/L	.
.	.	.	.	.	.	8F/J	.
!	!	!	!	!	!	!LO:TX:t=P:problem=kreska pseudotaktowa	!
.	.	2D/	no-	.	.	2G/	.
=34-	=34-	=34-	=34-	=34-	=34-	=34-	=34-
!LO:TX:t=P:problem=kreska pseudotaktowa	!	!	!	!	!	!	!
1AA/	-bis.	2E,/	-bis	2c#X,\	-bis,	2A/	-bis
!	!	!LO:TX:t=P:problem=kreska pseudotaktowa	!	!LO:TX:t=P:problem=kreska pseudotaktowa	!	!	!
.	.	2A\	Qui	2c#\	Qui	4r	.
!	!	!	!	!	!	!LO:TX:t=P:problem=kreska pseudotaktowa	!
.	.	.	.	.	.	4e\	Qui
00r	.	1D/	tol-	1d\	tol-	1f\	tol-
=35-	=35-	=35-	=35-	=35-	=35-	=35-	=35-
.	.	2.A\	-lis	2.c#X\	-lis	2.e\	-lis
*	*	*	*	*custos:en	*	*	*
!	!	!	!	!LO:TX:t=P:problem=kreska pseudotaktowa	!	!	!
!	!	!	!	!	!	!LO:TX:t=P:problem=kreska pseudotaktowa	!
.	.	4Bn\	pec-	4d\	pec-	4d\	pec-
!	!	!	!	!LO:LB:g=original	!	!	!
.	.	2c\	-ca-	2e\	-ca-	2g\	-ca-
.	.	2d,\	-ta	2d\	-ta	2f\	-ta
=36-	=36-	=36-	=36-	=36-	=36-	=36-	=36-
.	.	2A\	mun-	2c#X/	mun-	2e\	mun-
*	*	*custos:B-	*	*	*	*	*
!	!	!LO:TX:t=P:problem=kreska pseudotaktowa	!	!	!	!	!
!	!	!	!	!LO:TX:t=P:problem=kreska pseudotaktowa	!	!LO:TX:t=P:problem=kreska pseudotaktowa	!
.	.	2A\	-di	2c#/	-di,	2e\	-di,
!	!	!LO:PB:g=original	!	!	!	!	!
00r	.	2.B-\	Su-	2r	.	2.d\	Suſ-
.	.	.	.	2.f\	Suſ-	.	.
!	!	!	!	!	!	!LO:TX:t=P:problem=kreska pseudotaktowa	!
.	.	4B-\	-sci-	.	.	4d\	-ci-
=37-	=37-	=37-	=37-	=37-	=37-	=37-	=37-
.	.	2A\	-pe	.	.	2c\	-pe
.	.	.	.	4f\	-ci-	.	.
!	!	!	!	!LO:TX:t=P:problem=kreska pseudotaktowa	!	!	!
.	.	1B-\	de-	2f\	-pe	2.d\	de-
.	.	.	.	2d\	de-	.	.
.	.	.	.	.	.	4G/	-pre-
*	*	*	*	*	*	*custos:B-	*
!	!	!	!	!	!	!LO:TX:t=P:problem=kreska pseudotaktowa	!
!	!	!LO:TX:t=P:problem=kreska pseudotaktowa	!	!	!	!	!
.	.	2G/	-pre-	2e-X\	-pre-	[2B-/	-ca-
!	!	!	!	!	!	!LO:LB:g=original	!
=38-	=38-	=38-	=38-	=38-	=38-	=38-	=38-
!	!	!	!	!	!	!LO:N:xstem:cue	!
.	.	2G/	-ca-	2d\	-ca-	4B-/]	.
.	.	.	.	.	.	4B-/	-ti-
!	!	!	!	!LO:TX:t=P:problem=kreska pseudotaktowa	!	!LO:TX:t=P:problem=kreska pseudotaktowa	!
.	.	2A/	-ti-	2c\	-ti-	[2c/	-o-
!	!	!	!	!	!	!LO:N:xstem:cue	!
0r	.	2B-\	-o-	2d\	-o-	4c]/	.
.	.	.	.	.	.	4B-/	-nem
!	!	!	!	!	!	!LO:TX:t=P:problem=kreska pseudotaktowa	!
.	.	2G/	-nem	2e-X\	-nem	[2B-/	no-
=39-	=39-	=39-	=39-	=39-	=39-	=39-	=39-
!LO:TX:t=P:problem=kreska pseudotaktowa	!	!LO:TX:t=P:problem=kreska pseudotaktowa	!	!LO:TX:t=P:problem=kreska pseudotaktowa	!	!LO:N:xstem:cue	!
.	.	1F/	no-	1c\	no-	4B-/]	.
.	.	.	.	.	.	8A/L	.
.	.	.	.	.	.	8G/J	.
.	.	.	.	.	.	2A/	.
!	!	!	!	!	!	!LO:TX:t=P:problem=kreska pseudotaktowa	!
2rBB	.	2BB-,/	-stram	2B-,/	-ſtram.	1B-/	-stram.
2BB-/	Qui	2B-\	Qui	2d\	Qui	.	.
=40-	=40-	=40-	=40-	=40-	=40-	=40-	=40-
2F\	se-	2A\	se-	2c\	se-	0r	.
!LO:TX:t=P:problem=kreska pseudotaktowa	!	!LO:TX:t=P:problem=kreska pseudotaktowa	!	!LO:TX:t=P:problem=kreska pseudotaktowa	!	!	!
2E\	-des	2G/	-des	2c\	-des	.	.
4F\	ad	4F/	ad	4A/	ad	.	.
2D/	dex-	2F/	dex-	2A/	dex-	.	.
4D/	-te-	4F/	-te-	4A/	-te-	.	.
=41-	=41-	=41-	=41-	=41-	=41-	=41-	=41-
!	!	!	!	!	!	!LO:TX:t=P:problem=kreska pseudotaktowa	!
2D,/	-ram	2F,/	-ra(m)	2B-/	-ra(m)	1r	.
!LO:TX:t=P:problem=kreska pseudotaktowa	!	!LO:TX:t=P:problem=kreska pseudotaktowa	!	!LO:TX:t=P:problem=kreska pseudotaktowa	!	!	!
2C/	P(at)-	2E/	Pa-	2G/	Pa-	.	.
2F,\	-ris	2F,/	-tris	2A/	-tris	2r	.
2.BB-/	mi-	2.F/	mi-	1d\	mi-	2.f\	mi-
=42-	=42-	=42-	=42-	=42-	=42-	=42-	=42-
4BB-/	-ſe-	4F/	-ſe-	.	.	4f\	-ſe-
!	!	!	!	!LO:TX:t=P:problem=kreska pseudotaktowa	!	!LO:TX:t=P:problem=kreska pseudotaktowa	!
1C/	-re-	1c\	-re-	2G/	-ſe-	[<2e\	-re-
!	!	!	!	!	!	!LO:N:xstem:cue	!
.	.	.	.	2g,\	-re-	4e\]	.
.	.	.	.	.	.	4d\	-re
!	!	!LO:TX:t=P:problem=kreska pseudotaktowa	!	!	!	!	!
2D/	-re	2A\	-re	2f\	-re	2.d\	no-
=43-	=43-	=43-	=43-	=43-	=43-	=43-	=43-
!LO:TX:t=P:problem=kreska pseudotaktowa	!	!	!	!	!	!	!
1AA/	no-	1A\	no-	1e\	no-	.	.
!	!	!	!	!	!	!LO:SIC:v:s=8BnJ	!
.	.	.	.	.	.	8c#X/L	.
.	.	.	.	.	.	8B-/J	.
.	.	.	.	.	.	2c#\	.
!	!	!LO:TX:t=P:problem=kreska pseudotaktowa	!	!LO:TX:t=P:problem=kreska pseudotaktowa	!	!LO:TX:t=P:problem=kreska pseudotaktowa	!
2D,\	-bis.	1F#X/	-bis.	1d\	-bis.	1d\	-bis.
2.D\	Quo-	.	.	.	.	.	.
=44-	=44-	=44-	=44-	=44-	=44-	=44-	=44-
*	*	*	*	*custos:d	*	*	*
!	!	!	!	!LO:TX:t=P:problem=kreska pseudotaktowa	!	!	!
!	!	!LO:TX:t=P:problem=kreska pseudotaktowa	!	!	!	!	!
.	.	0r	.	0r	.	2.d\	Quo-
4E\	-ni-	.	.	.	.	.	.
2F#X,\	-am	.	.	.	.	.	.
!	!	!	!	!	!	!LO:TX:t=P:problem=kreska pseudotaktowa	!
.	.	.	.	.	.	4c/	-ni-
2G\	Tu	.	.	.	.	4B-X/	-am
.	.	.	.	.	.	4d/	Tu
4A\	so-	.	.	.	.	4c/	so-
!LO:TX:t=P:problem=kreska pseudotaktowa	!	!	!	!	!	!LO:TX:t=P:problem=kreska pseudotaktowa	!
4G\	-l(us)	.	.	.	.	4B-/	-l(us)
!	!	!	!	!LO:PB:g=original	!	!	!
=45-	=45-	=45-	=45-	=45-	=45-	=45-	=45-
2F#X\	San-	2r	.	2r	.	2A/	san-
!LO:TX:t=P:problem=kreska pseudotaktowa	!	!LO:TX:t=P:problem=kreska pseudotaktowa	!	!LO:TX:t=P:problem=kreska pseudotaktowa	!	!LO:TX:t=P:problem=kreska pseudotaktowa	!
2G\	-ct(us)	2B-\	Tu	2d\	Tu	2G/	-ct(us)
*custos:D	*	*	*	*	*	*	*
!LO:TX:t=P:problem=kreska pseudotaktowa	!	!	!	!	!	!	!
!LO:TX:a:t=Vertat	!	!	!	!	!	!LO:TX:t=P:problem=kreska pseudotaktowa	!
1rF	.	2.A\	so-	2.c\	so-	1re	.
!	!	!LO:TX:t=P:problem=kreska pseudotaktowa	!	!LO:TX:t=P:problem=kreska pseudotaktowa	!	!	!
.	.	4B-\	-lus	4d\	-l(us)	.	.
!LO:PB:g=original	!	!	!	!	!	!	!
=46-	=46-	=46-	=46-	=46-	=46-	=46-	=46-
2r	.	4A/	Do-	4c/	Do-	2r	.
.	.	4G/	-mi-	4B-/	-mi-	.	.
!LO:TX:t=P:problem=kreska pseudotaktowa	!	!	!	!LO:TX:t=P:problem=kreska pseudotaktowa	!	!LO:TX:t=P:problem=kreska pseudotaktowa	!
2D\	Tu	4.F#X,/	-n(us)	2A/	-n(us)	2d\	Tu
*	*	*custos:G	*	*	*	*	*
!	!	!LO:TX:t=P:problem=kreska pseudotaktowa	!	!	!	!	!
.	.	8F#/	Tu	.	.	.	.
!	!	!LO:LB:g=original	!	!	!	!	!
2E-X\	so-	2G/	so-	0r	.	2B-/	so-
4E-\	-l(us)	4G/	-lus	.	.	4c/	-l(us)
!LO:TX:t=P:problem=kreska pseudotaktowa	!	!	!	!	!	!	!
4D\	al-	4F#X/	al-	.	.	4d/	al-
=47-	=47-	=47-	=47-	=47-	=47-	=47-	=47-
2.C/	-tiſ-	2G/	-tiſ-	.	.	2.e-X\	-tiſ-
!	!	!LO:TX:t=P:problem=kreska pseudotaktowa	!	!	!	!	!
.	.	2A\	-si-	.	.	.	.
*	*	*	*	*	*	*custos:d	*
!	!	!	!	!	!	!LO:TX:t=P:problem=kreska pseudotaktowa	!
4C/	-si-	.	.	.	.	4e-\	-si-
!	!	!	!	!	!	!LO:PB:g=original	!
2BB-/	-m(us)	2B-,\	-mus	2r	.	2d,\	-mus
1BB-/	JE-	2.B-\	Je-	1f\	JE-	1d\	JE-
=48-	=48-	=48-	=48-	=48-	=48-	=48-	=48-
.	.	4A/	-su	.	.	.	.
!LO:TX:t=P:problem=kreska pseudotaktowa	!	!LO:TX:t=P:problem=kreska pseudotaktowa	!	!LO:TX:t=P:problem=kreska pseudotaktowa	!	!LO:TX:t=P:problem=kreska pseudotaktowa	!
2C/	-su	[2G/	Chri-	2e-X\	-su	2c/	-su
!	!	!LO:N:xstem:cue	!	!	!	!	!
1D\	x-	4G/]	.	1d\	X-	4B-/	Chri-
.	.	8F#X/L	.	.	.	8A/L	.
.	.	8E/J	.	.	.	8G/J	.
!	!	!LO:TX:t=P:problem=kreska pseudotaktowa	!	!	!	!LO:TX:t=P:problem=kreska pseudotaktowa	!
.	.	2F#X/	.	.	.	2A/	.
=49-	=49-	=49-	=49-	=49-	=49-	=49-	=49-
!	!	!LO:TX:t=P:problem=kreska pseudotaktowa	!	!	!	!	!
2GG,/	-te	1G/	-ste	2d,\	-te.	2G,/	-ste.
!LO:TX:t=P:problem=kreska pseudotaktowa	!	!	!	!LO:TX:t=P:problem=kreska pseudotaktowa	!	!	!
2G\	Cum	.	.	2d\	Cum	2B-/	Cum
2D\	San-	00r	.	2d\	San-	2A/	S(an)-
4E\	-cto	.	.	4c/	-cto	4G/	-cto
!LO:TX:t=P:problem=kreska pseudotaktowa	!	!	!	!LO:TX:t=P:problem=kreska pseudotaktowa	!	!LO:TX:t=P:problem=kreska pseudotaktowa	!
[4F\	Spi-	.	.	[4c/	Spi-	[4A/	Spi-
=50-	=50-	=50-	=50-	=50-	=50-	=50-	=50-
4F\]	.	.	.	4c\]	.	4A/]	.
4G\	-ri-	.	.	4B-/	-ri-	4B-/	-ri-
!LO:TX:t=P:problem=kreska pseudotaktowa	!	!	!	!LO:TX:t=P:problem=kreska pseudotaktowa	!	!LO:TX:t=P:problem=kreska pseudotaktowa	!
2F,\	-tu	.	.	2A/	-tu	2c/	-tu
2BB-/	in	.	.	2B-/	in	2d\	in
4.E-X\	glo-	.	.	4.G/	glo-	4.B-/	glo-
!	!	!	!	!LO:TX:t=P:problem=kreska pseudotaktowa	!	!LO:TX:t=P:problem=kreska pseudotaktowa	!
8E-\	-ri-	.	.	8G/	-ri-	8B-/	-ri-
=51-	=51-	=51-	=51-	=51-	=51-	=51-	=51-
4E-y,\	-a	.	.	4G/	-a	4B-,/	-a
2C/	De-	.	.	2G/	De-	2B-/	De-
!LO:TX:t=P:problem=kreska pseudotaktowa	!	!	!	!LO:TX:t=P:problem=kreska pseudotaktowa	!	!LO:TX:t=P:problem=kreska pseudotaktowa	!
4E-\	-i	.	.	4G/	-i	4c/	-i
!	!	!LO:TX:t=P:problem=kreska pseudotaktowa	!	!	!	!	!
2D\	Pa-	1r	.	2F#X/	Pa-	2A/	Pa-
!LO:TX:t=P:problem=kreska pseudotaktowa	!	!	!	!LO:TX:t=P:problem=kreska pseudotaktowa	!	!LO:TX:t=P:problem=kreska pseudotaktowa	!
2D\	-tris	.	.	2F#/	-tris,	2A/	-tris
=52-	=52-	=52-	=52-	=52-	=52-	=52-	=52-
0r	.	2d\	in	2G/	in	4r	.
.	.	.	.	.	.	4d\	in
.	.	4.B-\	glo-	4.d\	glo-	4.f\	glo-
!	!	!LO:TX:t=P:problem=kreska pseudotaktowa	!	!LO:TX:t=P:problem=kreska pseudotaktowa	!	!LO:TX:t=P:problem=kreska pseudotaktowa	!
.	.	8B-\	-ri-	8d\	-ri-	8f\	-ri-
.	.	4B-,\	-a	4d\	-a	4f\	-a
.	.	2B-\	De-	2d\	De-	2f\	De-
!	!	!LO:TX:t=P:problem=kreska pseudotaktowa	!	!LO:TX:t=P:problem=kreska pseudotaktowa	!	!LO:TX:t=P:problem=kreska pseudotaktowa	!
.	.	4G/	-i	4d\	-i	4g\	-i
=53-	=53-	=53-	=53-	=53-	=53-	=53-	=53-
!LO:TX:t=P:problem=kreska pseudotaktowa	!	!	!	!	!	!LO:TX:t=P:problem=♮ above	!
1r	.	4A\	Pa-	2c#X\	Pa-	2en\	Pa-
.	.	4A\	-tris	.	.	.	.
!	!	!LO:TX:t=P:problem=kreska pseudotaktowa	!	!	!	!	!
.	.	[<2A\	A-	2c#\	-tris	2e\	-tris
!	!	!LO:N:xstem:cue	!	!	!	!	!
0D\	A-	4A\]	.	4d\	A-	4f\	A-
.	.	4G/	.	4c#\	.	4e\	.
!	!	!LO:TX:t=P:problem=kreska pseudotaktowa	!	!	!	!	!
.	.	[2G/	.	4B-/	.	4d\	.
.	.	.	.	8A/L	.	4c#X\	.
!	!	!	!	!LO:TX:t=P:problem=kreska pseudotaktowa	!	!	!
.	.	.	.	8G/J	.	.	.
=54-	=54-	=54-	=54-	=54-	=54-	=54-	=54-
!	!	!LO:N:xstem:cue	!	!	!	!	!
.	.	4G/]	.	1A/	.	1d\	.
.	.	8F#X/L	.	.	.	.	.
.	.	8E/J	.	.	.	.	.
.	.	2F#X/	.	.	.	.	.
00GG/;	-men.	00G/;	-men.	00G/;	-men.	00Bn/;	-men.
=-	=-	=-	=-	=-	=-	=-	=-
*-	*-	*-	*-	*-	*-	*-	*-
!!!system-decoration: [(s1,s2,s3,s4)]
!!!RDF**kern: > = above
!!!RDF**kern: < = below
!!!EED: Leszek Kubiak
!!!EEV: 2021-03-14
!!!ENC: Andrzej Kubiczek
!!!END: 2021-02-27
